clients/portal/components/icon/svgs/playlist_add_check.svg

<svg xmlns="http://www.w3.org/2000/svg" height="24" viewBox="0 0 24 24" width="24"><path d="M0 0h24v24H0V0z" fill="currentColor"/><path d="M14 10H2v2h12v-2zm0-4H2v2h12V6zM2 16h8v-2H2v2zm19.5-4.5L23 13l-6.99 7-4.51-4.5L13 14l3.01 3 5.49-5.5z"/></svg>

<svg width="24" height="24" viewBox="0 0 24 24" fill="none" xmlns="http://www.w3.org/2000/svg">
<path d="M14 10H2V12H14V10ZM14 6H2V8H14V6ZM2 16H10V14H2V16ZM21.5 11.5L23 13L16.01 20L11.5 15.5L13 14L16.01 17L21.5 11.5Z" fill="#475569"/>
</svg>
